packages/ui-solid/icons/person_add_24.svg

<svg width="24" height="24" viewBox="0 0 24 24" fill="none" xmlns="http://www.w3.org/2000/svg">
<path fill-rule="evenodd" clip-rule="evenodd" d="M15.1108 5.13047C13.463 5.13047 12.1833 6.41061 12.1833 7.92168C12.1833 9.43276 13.463 10.7129 15.1108 10.7129C16.7586 10.7129 18.0382 9.43276 18.0382 7.92168C18.0382 6.41061 16.7586 5.13047 15.1108 5.13047ZM10.3834 7.92168C10.3834 5.35556 12.5309 3.33047 15.1108 3.33047C17.6907 3.33047 19.8382 5.35556 19.8382 7.92168C19.8382 10.4878 17.6907 12.5129 15.1108 12.5129C12.5309 12.5129 10.3834 10.4878 10.3834 7.92168ZM4.58531 7.02168C5.08237 7.02168 5.48531 7.42463 5.48531 7.92168V9.79009H7.4559C7.95296 9.79009 8.3559 10.193 8.3559 10.6901C8.3559 11.1871 7.95296 11.5901 7.4559 11.5901H5.48531V13.4585C5.48531 13.9556 5.08237 14.3585 4.58531 14.3585C4.08826 14.3585 3.68531 13.9556 3.68531 13.4585V11.5901H1.71473C1.21767 11.5901 0.814728 11.1871 0.814728 10.6901C0.814728 10.193 1.21767 9.79009 1.71473 9.79009H3.68531V7.92168C3.68531 7.42463 4.08826 7.02168 4.58531 7.02168ZM15.1108 15.7427C10.1849 15.7427 8.93856 18.4981 8.82953 19.5495C8.77827 20.0439 8.33591 20.4032 7.84151 20.3519C7.3471 20.3006 6.98787 19.8583 7.03913 19.3639C7.24906 17.3393 9.31983 13.9427 15.1108 13.9427C20.9018 13.9427 22.9725 17.3393 23.1825 19.3639C23.2337 19.8583 22.8745 20.3006 22.3801 20.3519C21.8857 20.4032 21.4433 20.0439 21.3921 19.5495C21.283 18.4981 20.0367 15.7427 15.1108 15.7427Z" fill="#007AFF"/>
</svg>

<svg xmlns="http://www.w3.org/2000/svg" width="24" height="24" fill="none"><path fill="currentColor" fill-rule="evenodd" d="M15.11 5.13c-1.647 0-2.927 1.28-2.927 2.792 0 1.51 1.28 2.79 2.928 2.79s2.927-1.28 2.927-2.79-1.28-2.792-2.927-2.792m-4.727 2.792c0-2.566 2.148-4.592 4.728-4.592s4.727 2.026 4.727 4.592-2.147 4.59-4.727 4.59-4.728-2.024-4.728-4.59m-5.798-.9a.9.9 0 0 1 .9.9V9.79h1.97a.9.9 0 1 1 0 1.8h-1.97v1.869a.9.9 0 1 1-1.8 0V11.59h-1.97a.9.9 0 0 1 0-1.8h1.97V7.922a.9.9 0 0 1 .9-.9m10.526 8.72c-4.926 0-6.172 2.756-6.281 3.807a.9.9 0 1 1-1.79-.185c.21-2.025 2.28-5.421 8.07-5.421 5.792 0 7.863 3.396 8.073 5.42a.9.9 0 0 1-1.79.186c-.11-1.05-1.356-3.806-6.282-3.806" clip-rule="evenodd"/></svg>
